X:107
T:Hessian Dance. VWMLa.107
%%VWML:Anon2-3049-p61-0
F:http://www.vwml.org/record/Anon2/3049/p61
S:Anon. MS, late 18thC, Vaughan Williams Mem. Library
O:England;Yorkshire
Z:vmp/efdss.Simon Wilson. Reviewed PJH 2008.
M:3/8
L:1/8
Q:3/8=90
K:G
|:gdB|GAG|DEF|GAG|gdB|GAG|DEF|G3:|
|:def|g2e|fag|fed|def|g2c|BcA|G3:|
|:g|d2e|B2c|AGF|GDg|d2e|B2c|AGF G3:|
W:I leave it to the reader to accomodate the first note of the C music.
T:Roman Reel. VWMLa.108
R:Reel
S:Anon. MS, late 18thC, Vaughan Williams Mem. Library
O:England;Yorkshire
Z:vmp/efdss.Simon Wilson. Reviewed PJH 2008.
M:2/4
L:1/8
Q:1/4=120
K:A
e|ecae|fedc|Bcde|cBAe|\
ecae|fedc|BdcB|A3:|
|:e|Bdce|dcBd|cedf|edce|\
eAae|fedc|BdcB|A3:|
